svg/u1f944.svg

<svg viewBox="0 0 128 128" xmlns="http://www.w3.org/2000/svg">
  <path d="M64.52,50.91c-0.26-9.45-0.37-17.84-6.27-26.94C48.75,9.32,22.97-2.35,13.03,5.16 C2.01,13.49,8.8,39.24,19.57,50.64c14.68,15.56,27.13,9.53,33.92,13.38c5.84,3.31,18.2,20.38,26.28,29.74s22.17,25.12,24.99,28.07 c2.82,2.95,6.94,2.65,8.07,2.05c1.61-0.84,4.72-3.45,4.34-4.47c-0.38-1.03-45.35-52.82-45.35-52.82l-6.92-9.23 C64.89,57.35,64.65,55.65,64.52,50.91z" fill="#9D9D9D"/>
  <path d="M14.5,7.56c-8.95,7.36-3.08,28.02,3.79,36.53C31.75,60.75,44.26,55.3,51.82,58.38 c7.56,3.08,8.97,6.54,18.33,16.92s36.29,46.35,43.39,47.97c0.9,0.21,3.88-2.93,5.42-4.85c1.54-1.92,2.97-4.53,1.82-6.33 c-1.15-1.79-52.94-54.73-55.63-57.42c-2.69-2.69-2.95-7.95-3.2-10.51c-0.26-2.56-1.15-16.92-12.18-25.76S22.45,1.03,14.5,7.56z" fill="#C8C8C8"/>
  <path d="M53.72,29.36c0,0,1.23,14.27-11.43,12.47c-13.22-1.87-19.28-19.75-22.02-25.7 c-2.58-5.61-7.84-4.81-8.03,2.27c-0.22,8.27,5.78,26.76,21.93,33.17c15.2,6.03,24.94,0.76,24.66-8.22 C58.53,34.19,53.72,29.36,53.72,29.36z" fill="#E0E0E0"/>
  <path d="M37.84,44.64c8.69,3.04,14.46-0.57,15.02,5.01c0.39,3.85-6.61,6.71-19.09,1.89 s-18.71-18.9-19.65-21.92s-1.7-7.47,0.09-8.22s3.69,2.46,5.95,6.8S26.79,40.77,37.84,44.64z" fill="#FFFFFF"/>
  <path d="M105.55,111.81c-1.45,1.09,4.63,8.5,7.56,8.98c2.93,0.47,7.22-5.29,5.39-6.14 c-1.23-0.57-1.98,1.13-5.39,0.38C109.71,114.27,107.44,110.4,105.55,111.81z" fill="#FFFFFF"/>
</svg>

<svg viewBox="0 0 128 128" xmlns="http://www.w3.org/2000/svg">
  <defs/>
  <path d="M64.52,50.91 C64.26,41.46 64.15,33.07 58.25,23.97 C48.75,9.32 22.97,-2.35 13.03,5.16 C2.01,13.49 8.8,39.24 19.57,50.64 C34.25,66.2 46.7,60.17 53.49,64.02 C59.33,67.33 71.69,84.4 79.77,93.76 C87.85,103.12 101.94,118.88 104.76,121.83 C107.58,124.78 111.7,124.48 112.83,123.88 C114.44,123.04 117.55,120.43 117.17,119.41 C116.79,118.38 71.82,66.59 71.82,66.59 L64.9,57.36 C64.89,57.35 64.65,55.65 64.52,50.91 Z" fill="#9D9D9D"/>
  <path d="M14.5,7.56 C5.55,14.92 11.42,35.58 18.29,44.09 C31.75,60.75 44.26,55.3 51.82,58.38 C59.38,61.46 60.79,64.92 70.15,75.3 C79.51,85.68 106.44,121.65 113.54,123.27 C114.44,123.48 117.42,120.34 118.96,118.42 C120.5,116.5 121.93,113.89 120.78,112.09 C119.63,110.3 67.84,57.36 65.15,54.67 C62.46,51.98 62.2,46.72 61.95,44.16 C61.69,41.6 60.8,27.24 49.77,18.4 C38.74,9.56 22.45,1.03 14.5,7.56 Z" fill="#C8C8C8"/>
  <path d="M53.72,29.36 C53.72,29.36 54.95,43.63 42.29,41.83 C29.07,39.96 23.01,22.08 20.27,16.13 C17.69,10.52 12.43,11.32 12.24,18.4 C12.02,26.67 18.02,45.16 34.17,51.57 C49.37,57.6 59.11,52.33 58.83,43.35 C58.53,34.19 53.72,29.36 53.72,29.36 Z" fill="#E0E0E0"/>
  <path d="M37.84,44.64 C46.53,47.68 52.3,44.07 52.86,49.65 C53.25,53.5 46.25,56.36 33.77,51.54 C21.29,46.72 15.06,32.64 14.12,29.62 C13.18,26.6 12.42,22.15 14.21,21.4 C16,20.65 17.9,23.86 20.16,28.2 C22.42,32.54 26.79,40.77 37.84,44.64 Z" fill="#FFFFFF"/>
  <path d="M105.55,111.81 C104.1,112.9 110.18,120.31 113.11,120.79 C116.04,121.26 120.33,115.5 118.5,114.65 C117.27,114.08 116.52,115.78 113.11,115.03 C109.71,114.27 107.44,110.4 105.55,111.81 Z" fill="#FFFFFF"/>
</svg>
